icon-themes/sifr_svg/cmd/sc_moduledialog.svg

<svg viewBox="0 0 16 16" xmlns="http://www.w3.org/2000/svg"><path d="m8 1a7 7 0 0 0 -7 7 7 7 0 0 0 7 7 7 7 0 0 0 1.9-.271484c-.5-.200603-1.1-.521285-1.6-1.007813l-.3-.294922v-.425781a5 5 0 0 1 -5-5 5 5 0 0 1 5-5 5 5 0 0 1 5 5h.414062l.292969.3c.492969.5.825047 1.041194 1.027344 1.6a7 7 0 0 0 .265625-1.9 7 7 0 0 0 -7-7zm-2 3v8l5-4zm6 5v1c1.56 1.6-.566483 3.5-2 2h-1v1c.8.77 1.65 1 2.4 1h1.6l2 2h1v-1l-2-2v-1.6c0-.9-.2-1.6-1-2.4z" fill="#555753"/></svg>

<svg xmlns="http://www.w3.org/2000/svg" viewBox="0 0 16 16">
  <path
     style="fill:#555753"
     d="M 8 1 A 7 7 0 0 0 1 8 A 7 7 0 0 0 8 15 A 7 7 0 0 0 9.9 14.728516 C 9.4 14.527913 8.8 14.207231 8.3 13.720703 L 8 13.425781 L 8 13 A 5 5 0 0 1 3 8 A 5 5 0 0 1 8 3 A 5 5 0 0 1 13 8 L 13.414062 8 L 13.707031 8.3 C 14.2 8.8 14.532078 9.341194 14.734375 9.9 A 7 7 0 0 0 15 8 A 7 7 0 0 0 8 1 z M 6 4 L 6 12 L 11 8 L 6 4 z M 12 9 L 12 10 C 13.56 11.6 11.433517 13.5 10 12 L 9 12 L 9 13 C 9.8 13.77 10.65 14 11.4 14 L 13 14 L 15 16 L 16 16 L 16 15 L 14 13 L 14 11.4 C 14 10.5 13.8 9.8 13 9 L 12 9 z "
     />
</svg>
